!!!OTL: Der Tannhaeuser Wer grosse Wunder schauen will,
!!!ARE: Europa, Mitteleuropa, Deutschland
!!!YOR: 1, S. 160
!!    1914 gedruckt in Leipzig
!!!SCT: Q0015E
!!!YEM: Copyright 1995, estate of Helmut Schaffrath.
**kern
*ICvox
*Ivox
*M4/4
*k[f#c#g#d#]
*E:
{4B
=1
4e
4d#
4e
4f#
=2
4e
4c#
4B}
{4B
=3
4.a
8b
4a
4B
=4
4g#
4b
4g#}
{4b
=5
4.g#
8a
4b
4e
=6
4f#
4g#
4a}
{4f#
=7
4g#
4e
4c#
8g#
8e
=8
2d#
4e}
==
!!!AGN: Ballade, Wallfahrt, religioes
!! "umgesungene" Fassung von Q0015B aus dem Zupfgeigenhansel.
!!!ONB: ESAC (Essen Associative Code) Database: BALLADE
!!!AMT: simple quadruple
!!!AIN: vox
!!!EED: Helmut Schaffrath
!!!EEV: 1.0
*-
